X:20
T:Bay of Quinte Reel
R:reel
C:Bruce Osborne  --  Apr.25 1991
Z:abc by bosborne@kos.net
M:2/4
L:1/8
K:Bb
d/c/|BF/B/ D/F/B/F/|GE/G/ FD/C/|B,/B,/F/B,/ G/F/G/A/|B/A/B/d/ cd/c/|\
BF/B/ D/F/B/F/|GE/G/ FD/C/|B,/B,/F/B,/ G/F/G/A/|B/d/c/A/ B:|\
K:F
|:A/B/|cA/c/ f/c/A/c/|d/B/F/B/ dc/B/|A/F/c/F/ d/c/d/e/|f/e/f/a/ gA/B/|\
cA/c/ f/c/A/c/|d/B/F/B/ dc/B/|A/F/c/F/ d/c/d/e/|f/a/g/e/ f:|
